X:0870
M:C|
L:1/8
Q:1/2=72
K:D
cd|e2ee  e2e2|Te6     de|f2ff  f2 f2|Tf6     
fg|a2ag  f2fe| d2dd A2A2|\
   abag  fgfe| d2dd A2A2|
   D2DD  D2FE| D2DD D2\
fg|a2de Tf2fg| a2de f2fg|a2gf  ed`ef| d6   :|

